dji-master/img/icons/tablet-search.svg

<svg width="19" height="19" viewBox="0 0 19 19" fill="none" xmlns="http://www.w3.org/2000/svg">
<path d="M12.8571 7.92997C12.8571 10.6867 10.6138 12.93 7.85714 12.93C5.10045 12.93 2.85714 10.6867 2.85714 7.92997C2.85714 5.17327 5.10045 2.92997 7.85714 2.92997C10.6138 2.92997 12.8571 5.17327 12.8571 7.92997ZM18.5714 17.2157C18.5714 16.8362 18.4152 16.4679 18.1585 16.2112L14.3304 12.3831C15.2344 11.0773 15.7143 9.51479 15.7143 7.92997C15.7143 3.58845 12.1987 0.0728228 7.85714 0.0728228C3.51563 0.0728228 0 3.58845 0 7.92997C0 12.2715 3.51563 15.7871 7.85714 15.7871C9.44196 15.7871 11.0045 15.3072 12.3103 14.4032L16.1384 18.2201C16.3951 18.488 16.7634 18.6443 17.1429 18.6443C17.9241 18.6443 18.5714 17.9969 18.5714 17.2157Z" fill="white"/>
</svg>

<svg width="19" height="19" fill="none" xmlns="http://www.w3.org/2000/svg"><path d="M12.857 7.93c0 2.757-2.243 5-5 5s-5-2.243-5-5 2.243-5 5-5 5 2.243 5 5zm5.714 9.286c0-.38-.156-.748-.413-1.005l-3.828-3.828a7.839 7.839 0 001.384-4.453A7.854 7.854 0 007.857.073 7.854 7.854 0 000 7.93a7.854 7.854 0 007.857 7.857 7.84 7.84 0 004.453-1.384l3.828 3.817a1.4 1.4 0 001.005.424c.781 0 1.428-.647 1.428-1.428z" fill="#fff"/></svg>
